svgs/light/mars-stroke.svg

<svg xmlns="http://www.w3.org/2000/svg" viewBox="0 0 512 512"><!--! Font Awesome Pro 6.0.0-alpha3 by @fontawesome - https://fontawesome.com License - https://fontawesome.com/license (Commercial License) --><path d="M510.8 9.891c-1.621-3.918-4.742-7.039-8.66-8.66C500.2 .4219 498.1 .0002 496 .0002L368 0C359.2 0 352 7.156 352 16S359.2 32 368 32h89.38L384 105.4l-36.69-36.69c-6.25-6.25-16.38-6.25-22.62 0s-6.25 16.38 0 22.62L361.4 128l-40.78 40.78C290.1 143.3 250.8 128 208 128C110.8 128 32 206.8 32 304S110.8 480 208 480S384 401.2 384 304c0-42.84-15.34-82.08-40.78-112.6L384 150.6l36.69 36.69C423.8 190.4 427.9 192 432 192s8.188-1.562 11.31-4.688c6.25-6.25 6.25-16.38 0-22.62L406.6 128L480 54.63V144C480 152.8 487.2 160 496 160S512 152.8 512 144V16C512 13.92 511.6 11.85 510.8 9.891zM352 304c0 79.4-64.6 144-144 144S64 383.4 64 304S128.6 160 208 160S352 224.6 352 304z"/></svg>

<svg xmlns="http://www.w3.org/2000/svg" viewBox="0 0 512 512"><!--! Font Awesome Pro 6.4.2 by @fontawesome - https://fontawesome.com License - https://fontawesome.com/license (Commercial License) Copyright 2023 Fonticons, Inc. --><path d="M368 0c-8.8 0-16 7.2-16 16s7.2 16 16 16h89.4L384 105.4 347.3 68.7c-6.2-6.2-16.4-6.2-22.6 0s-6.2 16.4 0 22.6L361.4 128l-40.7 40.7C290.1 143.3 250.8 128 208 128c-97.2 0-176 78.8-176 176s78.8 176 176 176s176-78.8 176-176c0-42.8-15.3-82.1-40.7-112.6L384 150.6l36.7 36.7c6.2 6.2 16.4 6.2 22.6 0s6.2-16.4 0-22.6L406.6 128 480 54.6V144c0 8.8 7.2 16 16 16s16-7.2 16-16V16c0-8.8-7.2-16-16-16H368zM64 304a144 144 0 1 1 288 0A144 144 0 1 1 64 304z"/></svg>
